svgs/regular/id-card-clip.svg

<svg xmlns="http://www.w3.org/2000/svg" viewBox="0 0 576 512"><!--! Font Awesome Pro 6.1.1 by @fontawesome - https://fontawesome.com License - https://fontawesome.com/license (Commercial License) Copyright 2022 Fonticons, Inc. --><path d="M256 128h64c17.67 0 32-14.33 32-32V32c0-17.67-14.33-32-32-32H256C238.3 0 224 14.33 224 32v64C224 113.7 238.3 128 256 128zM288 304c35.35 0 64-28.65 64-64c0-35.35-28.65-64-64-64s-64 28.65-64 64C224 275.3 252.7 304 288 304zM512 64h-128v48h128c8.822 0 16 7.178 16 16v320c0 8.822-7.178 16-16 16H64c-8.822 0-16-7.178-16-16V128c0-8.822 7.178-16 16-16h128V64H64C28.65 64 0 92.65 0 128v320c0 35.35 28.65 64 64 64h448c35.35 0 64-28.65 64-64V128C576 92.65 547.3 64 512 64zM192 432h192c8.836 0 16-7.164 16-16c0-44.18-35.82-80-80-80H256c-44.18 0-80 35.82-80 80C176 424.8 183.2 432 192 432z"/></svg>

<svg xmlns="http://www.w3.org/2000/svg" viewBox="0 0 576 512"><!--! Font Awesome Pro 6.4.2 by @fontawesome - https://fontawesome.com License - https://fontawesome.com/license (Commercial License) Copyright 2023 Fonticons, Inc. --><path d="M256 0c-17.7 0-32 14.3-32 32V96c0 17.7 14.3 32 32 32h64c17.7 0 32-14.3 32-32V32c0-17.7-14.3-32-32-32H256zM192 64H64C28.7 64 0 92.7 0 128V448c0 35.3 28.7 64 64 64H512c35.3 0 64-28.7 64-64V128c0-35.3-28.7-64-64-64H384v48H512c8.8 0 16 7.2 16 16V448c0 8.8-7.2 16-16 16H64c-8.8 0-16-7.2-16-16V128c0-8.8 7.2-16 16-16H192V64zm96 240a64 64 0 1 0 0-128 64 64 0 1 0 0 128zm-32 32c-44.2 0-80 35.8-80 80c0 8.8 7.2 16 16 16H384c8.8 0 16-7.2 16-16c0-44.2-35.8-80-80-80H256z"/></svg>
